public/img/old-svg/calendar.svg

<svg width="17" height="17" viewBox="0 0 17 17" fill="none" xmlns="http://www.w3.org/2000/svg">
<g clip-path="url(#clip0)">
<path d="M15.332 1.89313V3.94956C15.332 4.87904 14.5779 5.62806 13.6486 5.62806H12.5867C11.6573 5.62806 10.8932 4.87904 10.8932 3.94956V1.88574H6.10685V3.94956C6.10685 4.87904 5.34285 5.62806 4.41358 5.62806H3.35144C2.42213 5.62806 1.66813 4.87904 1.66813 3.94956V1.89313C0.855902 1.91761 0.188477 2.5897 0.188477 3.41579V15.4674C0.188477 16.3091 0.870633 17.0003 1.71225 17.0003H15.2878C16.1282 17.0003 16.8116 16.3076 16.8116 15.4674V3.41579C16.8116 2.5897 16.1442 1.91761 15.332 1.89313ZM14.8387 14.717C14.8387 15.0807 14.5438 15.3757 14.18 15.3757H2.79107C2.42722 15.3757 2.13232 15.0807 2.13232 14.717V8.49185C2.13232 8.12799 2.42718 7.83292 2.79107 7.83292H14.18C14.5438 7.83292 14.8387 8.12799 14.8387 8.49185L14.8387 14.717Z" fill="#D2D2D2"/>
<path d="M3.34784 4.52536H4.39824C4.71706 4.52536 4.97557 4.26724 4.97557 3.94841V0.577158C4.97557 0.258299 4.71706 0 4.39824 0H3.34784C3.02898 0 2.77051 0.258299 2.77051 0.577158V3.94841C2.77051 4.26724 3.02898 4.52536 3.34784 4.52536Z" fill="#D2D2D2"/>
<path d="M12.5734 4.52536H13.6238C13.9424 4.52536 14.2009 4.26724 14.2009 3.94841V0.577158C14.201 0.258299 13.9424 0 13.6238 0H12.5734C12.2546 0 11.9961 0.258299 11.9961 0.577158V3.94841C11.9961 4.26724 12.2546 4.52536 12.5734 4.52536Z" fill="#D2D2D2"/>
</g>
<defs>
<clipPath id="clip0">
<rect width="17" height="17" fill="white"/>
</clipPath>
</defs>
</svg>

<svg width="17" height="17" viewBox="0 0 17 17" fill="none" xmlns="http://www.w3.org/2000/svg"><g clip-path="url(#clip0)" fill="#D2D2D2"><path d="M15.332 1.893V3.95a1.68 1.68 0 01-1.683 1.678h-1.062c-.93 0-1.694-.749-1.694-1.678V1.886H6.107V3.95c0 .929-.764 1.678-1.693 1.678H3.35A1.68 1.68 0 011.668 3.95V1.893a1.53 1.53 0 00-1.48 1.523v12.051C.188 16.31.871 17 1.712 17h13.576c.84 0 1.524-.692 1.524-1.533V3.416a1.53 1.53 0 00-1.48-1.523zm-.493 12.824a.659.659 0 01-.659.659H2.791a.659.659 0 01-.659-.659V8.492a.66.66 0 01.66-.66H14.18a.66.66 0 01.659.66v6.225z"/><path d="M3.348 4.525h1.05a.577.577 0 00.578-.577V.578A.577.577 0 004.398 0h-1.05a.577.577 0 00-.577.577v3.371c0 .32.258.577.577.577zm9.225 0h1.05a.577.577 0 00.578-.577V.578A.577.577 0 0013.624 0h-1.05a.577.577 0 00-.578.577v3.371c0 .32.259.577.577.577z"/></g><defs><clipPath id="clip0"><path fill="#fff" d="M0 0h17v17H0z"/></clipPath></defs></svg>
